X:172
T:Pays de Haut
S:Jim Coon to CoMandoList TOW
M:4/4
L:1/8
Q:1/4=240
K:D
fg|"D"afaf d2 ef|"A"gfgf c2 ef|"G"gfed "A"cABc|"D"defg "A"a2 fg|!
"D"afafd2 ef|"A"gfgf c2 ef|"G"gfed cABc|"A"dfec "D" d2:|!
AG|"D"FAdA FAdA|"G"GBdB GBdB|"A"ABcd efec|"D"defg a2 A2|!
"D"FAdA FAdA|"G"GBdB GBdB|"A"ABcd efec|"D"d2f2d2:|
